!!!!SEGMENT: pl-kk--kk-i-382--041-003-pc1_singenberger-johann-baptist--msza-na-3-glosy-sanctus-pc1.krn
!!!cenid: 18xx:1530b
!!!COM: Singenberger, Johann Baptist
!!!COM-rismid: pe30008527
!!!CDT: 1848-1924
!!!CNT:
!!!OPR: Msza na 3 głosy
!!!OTL: Sanctus [post correcturam]
!!!OMV: 003b
!!!PDT:
!!!AGN: Sacred; Mass
!!!SMS-siglum: PL-Kk
!!!SMS-shelfmark: Kk.I.382
!!!SMS-shelfwork: 027-003b M
!!!SMS-variant:
!!!SMS-altvar:
!!!NIFC-rismid: 1001140188
!!!URL-scan: http://repozytorium.nifc.pl/skany/pl-kk-nut--i-382
!!!ONB-nifc: UWAGA: obsada: S (T 1) (skany 0033-0034), T 2 (skany 0110-0111), B 2 (skany 0254-0255). Osobne części Mszy: Kyrie, Gloria, Sanctus, Benedictus, Agnus
**kern	**text	**kern	**text	**kern	**text
*part3	*part3	*part2	*part2	*part1	*part1
*staff3	*staff3	*staff2	*staff2	*staff1	*staff1
*Ibass	*	*Itenor	*	*Itenor	*
*I"Basso II	*	*I"Tenore II	*	*I"Soprano vel Tenore I.	*
*I'B 2	*	*I'T 2	*	*I'S (T 1)	*
*clefF4	*	*clefG2	*	*clefG2	*
*k[b-]	*	*k[b-]	*	*k[b-]	*
*F:	*	*F:	*	*F:	*
*M4/4	*	*M4/4	*	*M4/4	*
*met(c)	*	*met(c)	*	*met(c)	*
=1	=1	=1	=1	=1	=1
*2\right	*	*	*	*2\right	*
!LO:TX:t=P:problem:all\right:global	!	!	!	!LO:TX:t=P:problem:all\right:global	!
!LO:TX:a:t=P:problem:w źródle ta adnotacja zapisana na pięciolinii, przed pierwszym taktem	!	!LO:TX:a:t=P:problem:w źródle ta adnotacja zapisana na pięciolinii, przed pierwszym taktem	!	!LO:TX:a:t=P:problem:w źródle ta adnotacja zapisana na pięciolinii, przed pierwszym taktem	!
!LO:TX:a:i:t=Sanctus	!	!LO:TX:a:i:t=Sanctus	!	!LO:TX:a:i:t=Sanctus	!
!LO:TX:t=P:problem:all/left:global	!	!LO:TX:t=P:problem:all/left:global	!	!LO:TX:t=P:problem:all/left:global	!
2F\	Sanc-	2f/	Sanc-	2a/	Sanc-
2C/	-tus	2e/	-tus	2g/	-tus
=2	=2	=2	=2	=2	=2
2G\	Sanc-	4d/	Sanc-	2b-\	San-
.	.	4e/	.	.	.
2D\	-tus	2f/	-tus	2a/	-ctus
=3	=3	=3	=3	=3	=3
(<4.BB-/	Sanc-	4.f/	Sanc-	1dd	Sanc-
8C/	.	8e/	.	.	.
4D\	.	4f/	.	.	.
4E\)	.	4g/	.	.	.
=4	=4	=4	=4	=4	=4
1F;<	-tus	1a;>	-tus	1cc;>	-tus
=5	=5	=5	=5	=5	=5
2C/	Do-	2e/	Do-	2cc\	Do-
4C/	-mi-	4e/	-mi-	4g/	-mi-
4C/	-nus	4e/	-nus	4g/	-nus
!LO:LB:g=original	!	!	!	!	!
=6	=6	=6	=6	=6	=6
(<4F\	De-	2f/	De-	4a/	De-
4D\)	.	.	.	4bn\	.
2A\	-us	(<4e/	-us	4cc\	-us
.	.	4f#X/)	.	4dd\	.
!	!	!LO:PB:g=original	!	!LO:LB:g=original	!
=7	=7	=7	=7	=7	=7
2G\	Sa-	2.g/	Sa-	2ee\	Sa-
2GG/	-ba-	.	.	2dd\	-ba-
.	.	4fn/	-ba-	.	.
=8	=8	=8	=8	=8	=8
!	!	!LO:TX:a:t=prędzej	!	!	!
1C	-oth	1e	-oth	1cc	-oth
=9||	=9||	=9||	=9||	=9||	=9||
2c\	Ple-	2g/	Ple-	2ee\	Ple-
4B-\	-ni	4g/	-ni	4ee\	-ni
4B-\	sunt	4g/	sunt	4ee\	sunt
=10	=10	=10	=10	=10	=10
2A\	coe-	2f/	coe-	2ff\	coe-
4F\	-li	4a/	-li	4cc\	-li
4F\	et	4a/	et	4cc\	et
=11	=11	=11	=11	=11	=11
2B-\	ter-	2b-\	ter-	2dd\	ter-
2F\	-ra	2a/	-ra	2cc\	-ra
!LO:PB:g=original	!	!	!	!	!
=12	=12	=12	=12	=12	=12
*^	*	*	*	*	*
2G\	2.ryy	glo-	2g/	glo-	2b-\	glo-
4G\	.	-ri-	4e/	-ri-	4b-\	-ri-
8A\L	8AA\L	-a	4f/	-a	4a/	-a
8B-\J	8BB-\J	.	.	.	.	.
=13	=13	=13	=13	=13	=13	=13
2c\	2C\	tu-	2f/	tu-	2a/	tu-
4c\	4C\	-a	4e/	-a	4g/	-a
4C/	4ryy	Ho	4e/	Hos-	4g/	Hos-
!	!	!	!	!	!LO:PB:g=original	!
*v	*v	*	*	*	*	*
=14	=14	=14	=14	=14	=14
2F\	-san-	2f/	-san-	2a/	-san-
4A\	-na	4c/	-na	4f/	-na
4A\	Ho-	4c/	Ho-	4f/	Ho-
!	!	!LO:LB:g=original	!	!	!
=15	=15	=15	=15	=15	=15
*^	*	*	*	*	*
2G\	2ryy	-san-	2d/	-san-	2b-\	-san-
2c\	2C\	-na	2e/	-na	4g/	-na
.	.	.	.	.	[>4cc\	In
*v	*v	*	*	*	*	*
=16	=16	=16	=16	=16	=16
4A\	In	(>4f/	In	2.cc\]	.
4AA/	.	4c/	.	.	.
2BB-/	ex-	4d/)	.	.	.
.	.	4d/	ex-	4b-\	ex-
=17	=17	=17	=17	=17	=17
1C	-cel-	(<4c/	-cel-	2a/	-cel-
.	.	2f/	.	.	.
.	.	.	.	2g/	.
.	.	4e/)	.	.	.
=18	=18	=18	=18	=18	=18
1F;<	-sis	1f;>	-sis	1f;>	-sis
==	==	==	==	==	==
*-	*-	*-	*-	*-	*-
!!!system-decoration: [(s1,s2,s3)]
!!!RDF**kern: > = above
!!!RDF**kern: < = below
!!!EED: Antoni Szymański
!!!EST: 2021-02-08
!!!AIN: 1 bass 2 tenor
!!!ENC: Tomasz Grochalski
!!!END: 2021-01-29
